assets/icons/carriage/RUHE.svg

<svg width="34" height="34" viewBox="0 0 34 34" fill="none" xmlns="http://www.w3.org/2000/svg">
<g clip-path="url(#clip0_186_17)">
<rect width="34" height="34" rx="17" fill="#414141"/>
<path d="M25.4 26.8L22.375 23.775C21.9583 24.0417 21.5167 24.2708 21.05 24.4625C20.5833 24.6542 20.1 24.8083 19.6 24.925V22.875C19.8333 22.7917 20.0625 22.7083 20.2875 22.625C20.5125 22.5417 20.725 22.4417 20.925 22.325L17.6 19V24.2L12.6 19.2H8.6V13.2H11.8L7 8.4L8.4 7L26.8 25.4L25.4 26.8ZM25.2 21L23.75 19.55C24.0333 19.0333 24.2458 18.4917 24.3875 17.925C24.5292 17.3583 24.6 16.775 24.6 16.175C24.6 14.6083 24.1417 13.2083 23.225 11.975C22.3083 10.7417 21.1 9.90833 19.6 9.475V7.425C21.6667 7.89167 23.35 8.9375 24.65 10.5625C25.95 12.1875 26.6 14.0583 26.6 16.175C26.6 17.0583 26.4792 17.9083 26.2375 18.725C25.9958 19.5417 25.65 20.3 25.2 21ZM21.85 17.65L19.6 15.4V12.15C20.3833 12.5167 20.9958 13.0667 21.4375 13.8C21.8792 14.5333 22.1 15.3333 22.1 16.2C22.1 16.45 22.0792 16.6958 22.0375 16.9375C21.9958 17.1792 21.9333 17.4167 21.85 17.65ZM17.6 13.4L15 10.8L17.6 8.2V13.4ZM15.6 19.35V17L13.8 15.2H10.6V17.2H13.45L15.6 19.35Z" fill="white"/>
</g>
<defs>
<clipPath id="clip0_186_17">
<rect width="34" height="34" fill="white"/>
</clipPath>
</defs>
</svg>

<svg xmlns="http://www.w3.org/2000/svg" width="34" height="34" fill="none"><g clip-path="url(#a)"><rect width="34" height="34" fill="#414141" rx="17"/><path fill="#fff" d="m25.4 26.8-3.025-3.025a8.306 8.306 0 0 1-1.325.688 9.48 9.48 0 0 1-1.45.462v-2.05c.233-.083.462-.167.688-.25.224-.083.437-.183.637-.3L17.6 19v5.2l-5-5h-4v-6h3.2L7 8.4 8.4 7l18.4 18.4-1.4 1.4Zm-.2-5.8-1.45-1.45a6.796 6.796 0 0 0 .637-1.625c.142-.567.213-1.15.213-1.75 0-1.567-.458-2.967-1.375-4.2S21.1 9.908 19.6 9.475v-2.05c2.067.467 3.75 1.513 5.05 3.138 1.3 1.624 1.95 3.495 1.95 5.612 0 .883-.12 1.733-.363 2.55A8.803 8.803 0 0 1 25.2 21Zm-3.35-3.35L19.6 15.4v-3.25a4.152 4.152 0 0 1 1.837 1.65c.442.733.663 1.533.663 2.4a4.33 4.33 0 0 1-.25 1.45ZM17.6 13.4 15 10.8l2.6-2.6v5.2Zm-2 5.95V17l-1.8-1.8h-3.2v2h2.85l2.15 2.15Z"/></g><defs><clipPath id="a"><path fill="#fff" d="M0 0h34v34H0z"/></clipPath></defs></svg>
